X:434
T:Wha Wadna fecht for Charlie?
S:Various
Z:Nigel Gatherer
M:2/4
L:1/8
K:D
D2 D>E | FE F<A | D2 D>E | FA E2 |
D2 D>E | FE F<A | Bd Ad  | Fd E2 :|
FA AB/c/ | dA BA | FA AB/c/ | dF E2 |
FA AB/c/ | dA BA |  Bd Ad  | Fd E2 :|]
<end>
<start>
